assets/images/submit-project.svg

<svg width="83" height="83" viewBox="0 0 83 83" fill="none" xmlns="http://www.w3.org/2000/svg">
<path fill-rule="evenodd" clip-rule="evenodd" d="M41.5 83C64.4198 83 83 64.4198 83 41.5C83 18.5802 64.4198 0 41.5 0C18.5802 0 0 18.5802 0 41.5C0 64.4198 18.5802 83 41.5 83Z" fill="#3794FC"/>
<path d="M38.2354 47.082C38.2354 45.9775 37.3399 45.082 36.2354 45.082H27.0078C25.9032 45.082 25.0078 44.1866 25.0078 43.082V39.5967C25.0078 38.4921 25.9032 37.5967 27.0078 37.5967H36.2354C37.3399 37.5967 38.2354 36.7012 38.2354 35.5967V26.2666C38.2354 25.162 39.1308 24.2666 40.2354 24.2666H43.7207C44.8253 24.2666 45.7207 25.162 45.7207 26.2666V35.5967C45.7207 36.7012 46.6161 37.5967 47.7207 37.5967H56.9482C58.0528 37.5967 58.9482 38.4921 58.9482 39.5967V43.082C58.9482 44.1866 58.0528 45.082 56.9482 45.082H47.7207C46.6161 45.082 45.7207 45.9775 45.7207 47.082V56.2412C45.7207 57.3458 44.8253 58.2412 43.7207 58.2412H40.2354C39.1308 58.2412 38.2354 57.3458 38.2354 56.2412V47.082Z" fill="white"/>
</svg>

<svg xmlns="http://www.w3.org/2000/svg" fill="none" viewBox="0 0 83 83"><defs/><path fill="#3794FC" fill-rule="evenodd" d="M41.5 83C64.42 83 83 64.42 83 41.5S64.42 0 41.5 0 0 18.58 0 41.5 18.58 83 41.5 83z" clip-rule="evenodd"/><path fill="#fff" d="M38.235 47.082a2 2 0 00-2-2h-9.227a2 2 0 01-2-2v-3.485a2 2 0 012-2h9.227a2 2 0 002-2v-9.33a2 2 0 012-2h3.486a2 2 0 012 2v9.33a2 2 0 002 2h9.227a2 2 0 012 2v3.485a2 2 0 01-2 2h-9.227a2 2 0 00-2 2v9.16a2 2 0 01-2 2h-3.486a2 2 0 01-2-2v-9.16z"/></svg>
